public/images/favicon.svg

<svg width="256" height="256" viewBox="0 0 256 256" fill="none" xmlns="http://www.w3.org/2000/svg">
<mask id="mask0" mask-type="alpha" maskUnits="userSpaceOnUse" x="0" y="0" width="256" height="256">
<path d="M0 93.5936C0 16.5193 16.5193 0 93.5936 0H162.406C239.481 0 256 16.5193 256 93.5936V162.406C256 239.481 239.481 256 162.406 256H93.5936C16.5193 256 0 239.481 0 162.406V93.5936Z" fill="#FEF3BA"/>
</mask>
<g mask="url(#mask0)">
<rect x="-47.5" y="-36.5" width="457" height="351" fill="#E0F2FE"/>
<path d="M48.4282 109.351H29.6415V94.7168H48.4282V70.5249H67.9399V94.7168H86.7265V109.351H67.9399V172.5H48.4282V109.351Z" fill="#1A1A1A"/>
<path d="M93.6215 133.345C93.6215 128.071 94.6982 123.04 96.8515 118.25C99.0048 113.416 102.103 109.153 106.146 105.461C110.189 101.77 115.133 98.8257 120.977 96.6284C126.866 94.4312 133.546 93.3325 141.017 93.3325C148.443 93.3325 155.123 94.4531 161.056 96.6943C167.032 98.8916 172.086 101.924 176.217 105.791C180.392 109.658 183.578 114.207 185.775 119.436C188.016 124.666 189.137 130.269 189.137 136.245C189.137 136.992 189.115 137.805 189.071 138.684C189.071 139.519 189.027 140.288 188.939 140.991H115.374C116.209 143.32 117.55 145.452 119.395 147.385C121.285 149.319 123.636 150.989 126.449 152.395C129.261 153.801 132.513 154.9 136.205 155.691C139.896 156.438 143.983 156.812 148.465 156.812C152.948 156.812 157.408 156.35 161.847 155.427C166.285 154.46 170.526 153.252 174.569 151.802L181.161 166.699C178.612 167.886 176.019 168.94 173.382 169.863C170.789 170.742 168.065 171.489 165.208 172.104C162.396 172.676 159.43 173.115 156.31 173.423C153.233 173.73 149.981 173.884 146.554 173.884C137.809 173.884 130.14 172.83 123.548 170.72C116.956 168.611 111.441 165.732 107.003 162.085C102.564 158.438 99.2245 154.153 96.9833 149.231C94.7421 144.309 93.6215 139.014 93.6215 133.345ZM168.438 125.764C167.735 123.611 166.637 121.611 165.143 119.766C163.692 117.876 161.869 116.25 159.671 114.888C157.474 113.481 154.925 112.383 152.025 111.592C149.124 110.801 145.938 110.405 142.467 110.405C138.775 110.405 135.414 110.823 132.381 111.658C129.349 112.493 126.69 113.613 124.405 115.02C122.12 116.426 120.208 118.052 118.67 119.897C117.176 121.743 116.078 123.699 115.374 125.764H168.438Z" fill="#1A1A1A"/>
<path d="M203.414 94.7168H222.926V105.923C227.233 102.715 231.781 99.9463 236.571 97.6172C241.361 95.2881 246.129 93.5083 250.875 92.2778L256.61 110.142C249.096 110.889 242.482 112.581 236.769 115.217C231.1 117.81 226.486 121.479 222.926 126.226V172.5H203.414V94.7168Z" fill="#1A1A1A"/>
</g>
</svg>

<svg width="256" height="256" fill="none" xmlns="http://www.w3.org/2000/svg"><mask id="a" mask-type="alpha" maskUnits="userSpaceOnUse" x="0" y="0" width="256" height="256"><path d="M0 93.594C0 16.519 16.52 0 93.594 0h68.812C239.481 0 256 16.52 256 93.594v68.812C256 239.481 239.481 256 162.406 256H93.594C16.519 256 0 239.481 0 162.406V93.594Z" fill="#FEF3BA"/></mask><g mask="url(#a)"><path fill="#E0F2FE" d="M-47.5-36.5h457v351h-457z"/><path d="M48.428 109.351H29.642V94.717h18.786V70.525H67.94v24.192h18.787v14.634H67.94V172.5H48.428v-63.149ZM93.621 133.345a36.406 36.406 0 0 1 3.23-15.095c2.154-4.834 5.252-9.097 9.295-12.789 4.043-3.691 8.987-6.635 14.831-8.833 5.889-2.197 12.569-3.296 20.04-3.296 7.426 0 14.106 1.121 20.039 3.362 5.976 2.198 11.03 5.23 15.161 9.097a38.974 38.974 0 0 1 9.558 13.645c2.241 5.23 3.362 10.833 3.362 16.809 0 .747-.022 1.56-.066 2.439 0 .835-.044 1.604-.132 2.307h-73.565c.835 2.329 2.176 4.461 4.021 6.394 1.89 1.934 4.241 3.604 7.054 5.01 2.812 1.406 6.064 2.505 9.756 3.296 3.691.747 7.778 1.121 12.26 1.121 4.483 0 8.943-.462 13.382-1.385a101.929 101.929 0 0 0 12.722-3.625l6.592 14.897a84.704 84.704 0 0 1-7.779 3.164 73.854 73.854 0 0 1-8.174 2.241 88.067 88.067 0 0 1-8.898 1.319 98.385 98.385 0 0 1-9.756.461c-8.745 0-16.414-1.054-23.006-3.164-6.592-2.109-12.107-4.988-16.545-8.635-4.439-3.647-7.778-7.932-10.02-12.854-2.24-4.922-3.362-10.217-3.362-15.886Zm74.817-7.581c-.703-2.153-1.801-4.153-3.295-5.998-1.451-1.89-3.274-3.516-5.472-4.878-2.197-1.407-4.746-2.505-7.646-3.296-2.901-.791-6.087-1.187-9.558-1.187-3.692 0-7.053.418-10.086 1.253-3.032.835-5.691 1.955-7.976 3.362-2.285 1.406-4.197 3.032-5.735 4.877-1.494 1.846-2.592 3.802-3.296 5.867h53.064ZM203.414 94.717h19.512v11.206a85.085 85.085 0 0 1 13.645-8.306c4.79-2.329 9.558-4.109 14.304-5.34l5.735 17.865c-7.514.747-14.128 2.439-19.841 5.075-5.669 2.593-10.283 6.262-13.843 11.009V172.5h-19.512V94.717Z" fill="#1A1A1A"/></g></svg>
